X:1
T:The Christian's Conflicts
T:William Walker, 1835 A Major          Alto by William Walker, 1867
T:Transcribed from Southern Harmony, 1835; and Christian Harmony, 1867.
T:Anonymous author, before 1823                          76. 76. 76. 76.                 
%%score [ 1 2 3 4 ]
L:1/8
Q:1/4=200
M:4/4
K:A
V:1 treble nm="Tr." snm="Tr."
V:2 treble nm="A." snm="A."
V:3 treble-8 nm="T." snm="T."
V:4 bass nm="B." snm="B."
V:1
"^Very Brisk""_1. See   how  the  wicked  kingdom    Is    falling   eve–ry   day!  And   still  our  blessed   Je  – sus   Is   winning  souls  a –way:             But   O,  how  I   am   tempted, \n2. With weeping and with  praying,   My  Jesus  I  have  found,   To    cru – ci – fy  old   na – ture,  And make his grace abound.          Dear children, don't be  weary, \n" c4 | %1
 B2 c2 c2 A2 | e4 f2 e2 | c2 c2 e2 c2 | c4 c4 | B2 c2 c2 A2 | B4 A2 B2 | c2 c2 e2 e2 | [ce]8 |: %9
 z4 d4 | c2 e2 f2 f2 | e4 c4 | %12
"_1. No mortal tongue can tell!           So      often  I’m  sur–roun–ded  With  en–e–mies  from hell.\n2. But  march on in the way;            For    Jesus will  stand  by you,  And be your guard and stay.\n" B4 c2 B2 | %13
 B2 c2 e4- | e4 c4 | B2 c2 c2 A2 | B4 A2 B2 | c2 c2 e2 e2 | [ce]8 :| %19
V:2
"_3. If   sinners   will   serve   Sa – tan,  And join with one accord;  Dear brethren, as  for  my part,  I’m bound to serve the Lord;              And    if  you  will go with me,\n4. Through troubles and distresses, We 'll make our way to God;  Tho'  earth and hell oppose us,  We'll keep the heavenly road.              Our    Je–sus  went  before  us," A4 | %1
 B2 A2 F2 F2 | A4 A2 E2 | F2 F2 E2 E2 | [CF]4 A4 | B2 A2 F2 F2 | G4 A2 G2 | F2 F2 E2 E2 | E8 |: %9
 z4 A4 | A2 G2 F2 A2 | B4 A4 | %12
"_3. Pray  give  to me your hand,         And we’ll march on to – ge –ther,  Unto  the promised land.\n4. And  ma – ny  sorrows  bore,        And  we  who  follow     af – ter  Can never meet with more." G4 A2 G2 | %13
 B2 A2 G4- | G4 A4 | B2 A2 F2 F2 | B4 A2 G2 | F2 F2 E2 E2 | C8 :| %19
V:3
"_5. Though dear to me, my brethren,  Each one of you, I   find,   My    du – ty  now  compels  me  To  leave  you  all  behind:              But while the parting grieves us,\n6. And  now,  my  lo–ving  brothers,  I  bid  you  all  fare – well   With you, my lo – ving  sis–ters,   I   can   no  longer  dwell.              Fare – well  to  eve –ry mourner," c4 | %1
 B2 A2 A2 F2 | E4 F2 G2 | A2 A2 B2 A2 | c4 c4 | B2 A2 A2 F2 | E4 F2 G2 | A2 A2 B2 A2 | A8 |: %9
 z4 d4 | c2 B2 A2 c2 | e4 c4 | %12
"_5. I  humbly  ask  your  prayers,        To     bear  me  up  in   trou – ble,  And  conquer all my fears.\n6.  I  hope  the  Lord you’ll find,       To    ease  you  of your burden, And give you peace of mind." e4 f2 e2 | %13
 e2 c2 B4- | B4 c4 | B2 A2 A2 F2 | E4 F2 G2 | A2 A2 B2 A2 | A8 :| %19
V:4
 F,4 | E,2 F,2 A,2 F,2 | E,4 A,2 G,2 | F,2 F,2 E,2 A,2 | F,4 F,4 | E,2 F,2 A,2 A,2 | E,4 F,2 E,2 | %7
 C,2 C,2 D,2 D,2 | A,,8 |: z4 A,4 | F,2 E,2 A,2 F,2 | E,4 F,4 | E,4 C,2 E,2 | E,2 A,2 E,4- | %14
 E,4 F,4 | E,2 F,2 A,2 A,2 | E,4 F,2 E,2 | C,2 C,2 E,2 E,2 | A,,8 :| %19

